ir/database-settings.svg

<svg stroke-width="1.5" viewBox="0 0 24 24" fill="none" xmlns="http://www.w3.org/2000/svg" height="1em" width="1em">
  <path d="M4 6V12C4 12 4 15 11 15C18 15 18 12 18 12V6" stroke="currentColor" stroke-linecap="round" stroke-linejoin="round"/>
  <path d="M11 3C18 3 18 6 18 6C18 6 18 9 11 9C4 9 4 6 4 6C4 6 4 3 11 3Z" stroke="currentColor" stroke-linecap="round" stroke-linejoin="round"/>
  <path d="M11 21C4 21 4 18 4 18V12" stroke="currentColor" stroke-linecap="round" stroke-linejoin="round"/>
  <path d="M19 21C20.1046 21 21 20.1046 21 19C21 17.8954 20.1046 17 19 17C18.6357 17 18.2942 17.0974 18 17.2676C17.4022 17.6134 17 18.2597 17 19C17 19.7403 17.4022 20.3866 18 20.7324C18.2942 20.9026 18.6357 21 19 21Z" stroke="currentColor" stroke-linecap="round" stroke-linejoin="round"/>
  <path d="M19 22C20.6569 22 22 20.6569 22 19C22 17.3431 20.6569 16 19 16C17.3431 16 16 17.3431 16 19C16 20.6569 17.3431 22 19 22Z" stroke="currentColor" stroke-linecap="round" stroke-linejoin="round" stroke-dasharray="0.3 2"/>
</svg>

<svg stroke-width="1.5" viewBox="0 0 24 24" fill="none" xmlns="http://www.w3.org/2000/svg" height="1em" width="1em">
  <path d="M4 6v6s0 3 7 3 7-3 7-3V6" stroke="currentColor" stroke-linecap="round" stroke-linejoin="round"/>
  <path d="M11 3c7 0 7 3 7 3s0 3-7 3-7-3-7-3 0-3 7-3Zm0 18c-7 0-7-3-7-3v-6m15 9a2 2 0 1 0 0-4 2 2 0 0 0 0 4Z" stroke="currentColor" stroke-linecap="round" stroke-linejoin="round"/>
  <path d="M19 22a3 3 0 1 0 0-6 3 3 0 0 0 0 6Z" stroke="currentColor" stroke-linecap="round" stroke-linejoin="round" stroke-dasharray="0.3 2"/>
</svg>
